X: 27
T:Soldier's Joy
M:4/4
L:1/8
C:Arranged by John Coffman
S:AABB form
R:Key of D
K:D
FG|:AFDFAFDF|Adecd2cB|AFDFAFDF|!
|GEFDE2FG|AFDFAFDF|Adecd3e|ffffeeee|!
|1d2ddd2FG:|2d2ddd2e2||!
|:f3ga2f2|e3fg2e2|f3ga2f2|edcBA2e2|f3ga2f2|!
|e3fg2fe|f2ffe2ee|1d2ddd2e2:|2d2d2d2||
